app/img/icomoon/skype.svg

<svg width="24" height="24" viewBox="0 0 24 24" fill="none" xmlns="http://www.w3.org/2000/svg">
<path d="M7 0C3.14453 0 0 3.14453 0 7C0 8.03125 0.316406 8.98828 0.71875 9.875C0.589844 10.5664 0.5 11.2695 0.5 12C0.5 18.3398 5.66016 23.5 12 23.5C12.7305 23.5 13.4336 23.4102 14.125 23.2812C15.0117 23.6836 15.9688 24 17 24C20.8555 24 24 20.8555 24 17C24 15.9688 23.6836 15.0117 23.2812 14.125C23.4102 13.4336 23.5 12.7305 23.5 12C23.5 5.66016 18.3398 0.5 12 0.5C11.2695 0.5 10.5664 0.589844 9.875 0.71875C8.98828 0.316406 8.03125 0 7 0ZM7 2C7.86328 2 8.66797 2.21094 9.375 2.59375C9.58594 2.70703 9.82812 2.73828 10.0625 2.6875C10.6914 2.55859 11.332 2.5 12 2.5C17.2578 2.5 21.5 6.74219 21.5 12C21.5 12.668 21.4414 13.3086 21.3125 13.9375C21.2617 14.1719 21.293 14.4141 21.4062 14.625C21.7891 15.332 22 16.1367 22 17C22 19.7734 19.7734 22 17 22C16.1367 22 15.332 21.7891 14.625 21.4062C14.4141 21.293 14.1719 21.2617 13.9375 21.3125C13.3086 21.4414 12.668 21.5 12 21.5C6.74219 21.5 2.5 17.2578 2.5 12C2.5 11.332 2.55859 10.6914 2.6875 10.0625C2.73828 9.82812 2.70703 9.58594 2.59375 9.375C2.21094 8.66797 2 7.86328 2 7C2 4.22656 4.22656 2 7 2ZM11.8438 5.15625C9.37109 5.15625 6.71875 6.20312 6.71875 9C6.71875 10.3477 7.19531 11.7734 9.84375 12.4375L13.1562 13.25C14.1523 13.4961 14.4062 14.0586 14.4062 14.5625C14.4062 15.4023 13.5742 16.2188 12.0625 16.2188C9.10938 16.2188 9.48828 13.9688 7.90625 13.9688C7.19531 13.9688 6.6875 14.457 6.6875 15.1562C6.6875 16.5195 8.36328 18.3125 12.0625 18.3125C15.582 18.3125 17.3125 16.6133 17.3125 14.3438C17.3125 12.875 16.6367 11.3438 13.9688 10.75L11.5312 10.1875C10.6055 9.97656 9.53125 9.71484 9.53125 8.84375C9.53125 7.96875 10.2734 7.34375 11.625 7.34375C14.3477 7.34375 14.1172 9.21875 15.4688 9.21875C16.1797 9.21875 16.7812 8.8125 16.7812 8.09375C16.7812 6.41406 14.1211 5.15625 11.8438 5.15625Z" fill="white"/>
</svg>

<svg width="24" height="24" fill="none" xmlns="http://www.w3.org/2000/svg"><path d="M7 0C3.145 0 0 3.145 0 7c0 1.031.316 1.988.719 2.875A11.528 11.528 0 00.5 12c0 6.34 5.16 11.5 11.5 11.5.73 0 1.434-.09 2.125-.219.887.403 1.844.719 2.875.719 3.855 0 7-3.145 7-7 0-1.031-.316-1.988-.719-2.875A11.52 11.52 0 0023.5 12C23.5 5.66 18.34.5 12 .5c-.73 0-1.434.09-2.125.219C8.988.316 8.031 0 7 0zm0 2c.863 0 1.668.21 2.375.594a1 1 0 00.688.094A9.587 9.587 0 0112 2.5c5.258 0 9.5 4.242 9.5 9.5 0 .668-.059 1.309-.188 1.938a1 1 0 00.094.687c.383.707.594 1.512.594 2.375 0 2.773-2.227 5-5 5-.863 0-1.668-.21-2.375-.594a1 1 0 00-.688-.093A9.587 9.587 0 0112 21.5 9.486 9.486 0 012.5 12c0-.668.059-1.309.188-1.938a1 1 0 00-.094-.687A4.956 4.956 0 012 7c0-2.773 2.227-5 5-5zm4.844 3.156C9.37 5.156 6.719 6.203 6.719 9c0 1.348.476 2.773 3.125 3.438l3.312.812c.996.246 1.25.809 1.25 1.313 0 .84-.832 1.656-2.344 1.656-2.953 0-2.574-2.25-4.156-2.25-.71 0-1.218.488-1.218 1.187 0 1.364 1.675 3.156 5.375 3.156 3.519 0 5.25-1.699 5.25-3.968 0-1.469-.676-3-3.344-3.594l-2.438-.563c-.926-.21-2-.472-2-1.343 0-.875.742-1.5 2.094-1.5 2.723 0 2.492 1.875 3.844 1.875.71 0 1.312-.406 1.312-1.125 0-1.68-2.66-2.938-4.937-2.938z" fill="#fff"/></svg>
